svgs/hypehype.svg

<svg width="192" height="192" viewBox="0 0 192 192" fill="none" xmlns="http://www.w3.org/2000/svg">
<path d="M108.719 83.6174C102.231 67.1449 83.617 59.0514 67.1445 65.5401C50.672 72.0288 42.5785 90.6425 49.0672 107.115" stroke="black" stroke-width="14"/>
<path d="M23.2198 41.4976L53.7668 119.045" stroke="black" stroke-width="14" stroke-linecap="round"/>
<path d="M108.719 83.6174L113.419 95.5479" stroke="black" stroke-width="14" stroke-linecap="round"/>
<path d="M83.2806 106.383C89.7692 122.855 108.383 130.949 124.855 124.46C141.328 117.971 149.421 99.3575 142.933 82.885" stroke="black" stroke-width="14"/>
<path d="M168.78 148.502L138.233 70.9545" stroke="black" stroke-width="14" stroke-linecap="round"/>
<path d="M83.2806 106.383L78.5811 94.4521" stroke="black" stroke-width="14" stroke-linecap="round"/>
</svg>

<svg xmlns="http://www.w3.org/2000/svg" width="192" height="192" fill="none" viewBox="0 0 192 192"><path stroke="#000" stroke-width="14" d="M108.719 83.617c-6.488-16.472-25.102-24.566-41.575-18.077-16.472 6.489-24.566 25.102-18.077 41.575"/><path stroke="#000" stroke-linecap="round" stroke-width="14" d="m23.22 41.498 30.547 77.547m54.952-35.428 4.7 11.93"/><path stroke="#000" stroke-width="14" d="M83.28 106.383c6.49 16.472 25.103 24.566 41.575 18.077 16.473-6.489 24.566-25.102 18.078-41.575"/><path stroke="#000" stroke-linecap="round" stroke-width="14" d="m168.78 148.502-30.547-77.548M83.28 106.383l-4.699-11.93"/></svg>
